; G-Code generated by Simplify3D(R) Version 3.1.1
; abr. 25, 2019 at 4:17:24 
; Settings Summary
;   processName,Process1
;   applyToModels,ButtonLeft4,ButtonLeft4(2),ButtonLeft4(3),ButtonLeft4(4),ButtonMiddle3,ButtonMiddle3(2),ButtonMiddle3(3),ButtonRight1,SwitchLeft4,SwitchLeft4(2),SwitchLeft4(3),SwitchLeft4(4),SwitchRight1
;   profileName,Anet Dense (modified)
;   profileVersion,2018-02-24 21:31:02
;   baseProfile,Default (modified)
;   printMaterial,PLA
;   printQuality,Medium
;   printExtruders,
;   extruderName,Primary Extruder
;   extruderToolheadNumber,0
;   extruderDiameter,0.4
;   extruderAutoWidth,0
;   extruderWidth,0.4
;   extrusionMultiplier,1
;   extruderUseRetract,1
;   extruderRetractionDistance,8
;   extruderExtraRestartDistance,0
;   extruderRetractionZLift,0.2
;   extruderRetractionSpeed,4800
;   extruderUseCoasting,0
;   extruderCoastingDistance,0.1
;   extruderUseWipe,0
;   extruderWipeDistance,5
;   primaryExtruder,0
;   layerHeight,0.2
;   topSolidLayers,3
;   bottomSolidLayers,3
;   perimeterOutlines,2
;   printPerimetersInsideOut,1
;   startPointOption,3
;   startPointOriginX,0
;   startPointOriginY,0
;   startPointOriginZ,500
;   sequentialIslands,0
;   spiralVaseMode,0
;   firstLayerHeightPercentage,100
;   firstLayerWidthPercentage,100
;   firstLayerUnderspeed,0.6
;   useRaft,0
;   raftExtruder,0
;   raftLayers,4
;   raftOffset,2
;   raftSeparationDistance,0.14
;   raftInfill,75
;   disableRaftBaseLayers,0
;   useSkirt,1
;   skirtExtruder,0
;   skirtLayers,1
;   skirtOutlines,3
;   skirtOffset,2
;   usePrimePillar,0
;   primePillarExtruder,999
;   primePillarWidth,12
;   primePillarLocation,7
;   primePillarSpeedMultiplier,1
;   useOozeShield,0
;   oozeShieldExtruder,999
;   oozeShieldOffset,2
;   oozeShieldOutlines,1
;   oozeShieldSidewallShape,1
;   oozeShieldSidewallAngle,30
;   oozeShieldSpeedMultiplier,1
;   infillExtruder,0
;   internalInfillPattern,Fast Honeycomb
;   externalInfillPattern,Rectilinear
;   infillPercentage,40
;   outlineOverlapPercentage,20
;   infillExtrusionWidthPercentage,100
;   minInfillLength,2
;   infillLayerInterval,1
;   infillAngles,0
;   overlapInfillAngles,0
;   generateSupport,0
;   supportExtruder,0
;   supportInfillPercentage,12
;   supportExtraInflation,0.6
;   denseSupportLayers,15
;   denseSupportInfillPercentage,30
;   supportLayerInterval,1
;   supportHorizontalPartOffset,0.6
;   supportUpperSeparationLayers,1
;   supportLowerSeparationLayers,0
;   supportType,0
;   supportGridSpacing,4
;   maxOverhangAngle,45
;   supportAngles,-45
;   temperatureName,Primary Extruder,Bed
;   temperatureNumber,0,0
;   temperatureSetpointCount,1,1
;   temperatureSetpointLayers,1,1
;   temperatureSetpointTemperatures,210,45
;   temperatureStabilizeAtStartup,1,1
;   temperatureHeatedBed,0,1
;   temperatureRelayBetweenLayers,0,0
;   temperatureRelayBetweenLoops,0,0
;   fanLayers,0,2
;   fanSpeeds,0,60
;   blipFanToFullPower,0
;   adjustSpeedForCooling,0
;   minSpeedLayerTime,20
;   minCoolingSpeedSlowdown,60
;   increaseFanForCooling,1
;   minFanLayerTime,15
;   maxCoolingFanSpeed,100
;   increaseFanForBridging,1
;   bridgingFanSpeed,100
;   use5D,1
;   relativeEdistances,0
;   allowEaxisZeroing,1
;   independentExtruderAxes,0
;   includeM10123,0
;   stickySupport,1
;   applyToolheadOffsets,0
;   gcodeXoffset,0
;   gcodeYoffset,0
;   gcodeZoffset,0
;   overrideMachineDefinition,1
;   machineTypeOverride,0
;   strokeXoverride,200
;   strokeYoverride,200
;   strokeZoverride,250
;   originOffsetXoverride,0
;   originOffsetYoverride,0
;   originOffsetZoverride,0
;   homeXdirOverride,-1
;   homeYdirOverride,-1
;   homeZdirOverride,-1
;   flipXoverride,1
;   flipYoverride,-1
;   flipZoverride,1
;   toolheadOffsets,0,0|0,0|0,0|0,0|0,0|0,0
;   overrideFirmwareConfiguration,0
;   firmwareTypeOverride,RepRap (Marlin/Repetier/Sprinter)
;   GPXconfigOverride,r2
;   baudRateOverride,115200
;   overridePrinterModels,0
;   printerModelsOverride
;   startingGcode,G28; home all,G1 Z8 F3000; lift,G1 X70 Y50 F1500; avoid binder clips,G1 Z2 F3000; go down to 2mm ,G92 E0; reset extrusion distance
;   layerChangeGcode,
;   retractionGcode,
;   toolChangeGcode,
;   endingGcode,M104 S0 ; turn off extruder,M140 S0 ; turn off bed,G28 X0 Y0 ; home x and y,M106 S0 ; turn off fan,M84 ; disable motors
;   exportFileFormat,gcode
;   celebration,0
;   celebrationSong,Random Song
;   postProcessing,
;   defaultSpeed,2100
;   outlineUnderspeed,0.9
;   solidInfillUnderspeed,1
;   supportUnderspeed,1
;   rapidXYspeed,6000
;   rapidZspeed,3000
;   minBridgingArea,50
;   bridgingExtraInflation,0
;   bridgingExtrusionMultiplier,1
;   bridgingSpeedMultiplier,1
;   filamentDiameter,1.75
;   filamentPricePerKg,20
;   filamentDensity,1.25
;   useMinPrintHeight,0
;   minPrintHeight,0.4
;   useMaxPrintHeight,0
;   maxPrintHeight,2
;   useDiaphragm,0
;   diaphragmLayerInterval,80
;   robustSlicing,1
;   mergeAllIntoSolid,0
;   onlyRetractWhenCrossingOutline,0
;   retractBetweenLayers,0
;   useRetractionMinTravel,1
;   retractionMinTravel,2
;   retractWhileWiping,0
;   onlyWipeOutlines,0
;   avoidCrossingOutline,1
;   maxMovementDetourFactor,20
;   toolChangeRetractionDistance,7
;   toolChangeExtraRestartDistance,-0.4
;   toolChangeRetractionSpeed,480
;   allowThinWallGapFill,1
;   thinWallAllowedOverlapPercentage,50
;   horizontalSizeCompensation,0
G90
M82
M140 S45
M190 S45
M104 S210 T0
M109 S210 T0
G28; home all
G1 Z8 F3000; lift
G1 X70 Y50 F1500; avoid binder clips
G1 Z2 F3000; go down to 2mm 
G92 E0; reset extrusion distance
G92 E0
G1 E-8.0000 F4800
G1 Z0.400 F3000
; layer 1, Z = 0.2
T0
; tool H0.200 W0.400
; skirt
G1 X55.081 Y47.020 F6000
G1 Z0.200 F3000
G1 E0.0000 F1440
G92 E0
G1 X55.133 Y46.961 E0.0026 F1260
G1 X55.411 Y46.682 E0.0157
G1 X55.470 Y46.631 E0.0183
G1 X56.002 Y46.245 E0.0402
G1 X56.052 Y46.214 E0.0421
G1 X56.309 Y46.069 E0.0519
G1 X56.362 Y46.044 E0.0539
G1 X56.779 Y45.871 E0.0689
G1 X56.835 Y45.852 E0.0709
G1 X57.119 Y45.772 E0.0807
G1 X57.176 Y45.759 E0.0826
G1 X57.728 Y45.672 E0.1012
G1 X57.767 Y45.667 E0.1025
G1 X57.963 Y45.652 E0.1091
G1 X58.002 Y45.650 E0.1104
G1 X101.207 Y45.651 E1.5474
G1 X101.247 Y45.652 E1.5487
G1 X101.445 Y45.668 E1.5553
G1 X101.485 Y45.673 E1.5566
G1 X102.029 Y45.760 E1.5750
G1 X102.086 Y45.773 E1.5769
G1 X102.367 Y45.852 E1.5866
G1 X102.422 Y45.871 E1.5886
G1 X102.838 Y46.044 E1.6035
G1 X102.891 Y46.069 E1.6055
G1 X103.148 Y46.214 E1.6153
G1 X103.198 Y46.245 E1.6173
G1 X103.730 Y46.631 E1.6391
G1 X103.789 Y46.682 E1.6417
G1 X104.068 Y46.961 E1.6548
G1 X104.119 Y47.020 E1.6574
G1 X104.505 Y47.552 E1.6793
G1 X104.536 Y47.602 E1.6812
G1 X104.579 Y47.678 E1.6841
G1 X104.819 Y47.291 E1.6993
G1 X104.851 Y47.245 E1.7012
G1 X105.026 Y47.023 E1.7106
G1 X105.064 Y46.981 E1.7124
G1 X105.433 Y46.608 E1.7299
G1 X105.487 Y46.562 E1.7322
G1 X105.769 Y46.348 E1.7440
G1 X105.828 Y46.309 E1.7464
G1 X106.424 Y45.978 E1.7690
G1 X106.500 Y45.944 E1.7718
G1 X106.893 Y45.805 E1.7857
G1 X106.974 Y45.784 E1.7884
G1 X107.583 Y45.677 E1.8090
G1 X107.626 Y45.671 E1.8105
G1 X107.843 Y45.652 E1.8177
G1 X107.886 Y45.650 E1.8191
G1 X130.135 Y45.650 E2.5591
G1 X130.149 Y45.650 E2.5596
G1 X130.219 Y45.652 E2.5619
G1 X130.233 Y45.653 E2.5624
G1 X130.501 Y45.668 E2.5713
G1 X130.555 Y45.674 E2.5731
G1 X130.825 Y45.719 E2.5822
G1 X130.878 Y45.731 E2.5841
G1 X131.504 Y45.907 E2.6057
G1 X131.584 Y45.937 E2.6085
G1 X131.966 Y46.119 E2.6226
G1 X132.040 Y46.162 E2.6254
G1 X132.608 Y46.562 E2.6486
G1 X132.663 Y46.607 E2.6509
G1 X132.921 Y46.850 E2.6627
G1 X132.969 Y46.902 E2.6650
G1 X133.288 Y47.301 E2.6820
G1 X133.320 Y47.346 E2.6839
G1 X133.467 Y47.578 E2.6930
G1 X133.494 Y47.627 E2.6949
G1 X133.720 Y48.089 E2.7120
G1 X133.747 Y48.154 E2.7143
G1 X133.855 Y48.488 E2.7260
G1 X133.872 Y48.556 E2.7283
G1 X133.973 Y49.133 E2.7478
G1 X133.979 Y49.176 E2.7493
G1 X133.998 Y49.393 E2.7565
G1 X134.000 Y49.436 E2.7579
G1 X134.000 Y66.619 E3.3294
G1 X133.999 Y66.647 E3.3304
G1 X133.992 Y66.785 E3.3350
G1 X133.989 Y66.813 E3.3359
G1 X133.945 Y67.214 E3.3493
G1 X133.936 Y67.268 E3.3511
G1 X133.875 Y67.537 E3.3603
G1 X133.860 Y67.590 E3.3621
G1 X133.704 Y68.043 E3.3781
G1 X133.683 Y68.095 E3.3800
G1 X133.563 Y68.349 E3.3893
G1 X133.536 Y68.398 E3.3912
G1 X133.281 Y68.809 E3.4072
G1 X133.249 Y68.855 E3.4091
G1 X133.073 Y69.077 E3.4185
G1 X133.036 Y69.119 E3.4204
G1 X132.708 Y69.450 E3.4359
G1 X142.091 Y69.450 E3.7480
G1 X142.127 Y69.451 E3.7492
G1 X142.309 Y69.465 E3.7552
G1 X142.345 Y69.469 E3.7564
G1 X142.904 Y69.550 E3.7752
G1 X142.987 Y69.570 E3.7781
G1 X143.393 Y69.703 E3.7923
G1 X143.472 Y69.736 E3.7951
G1 X144.135 Y70.087 E3.8201
G1 X144.198 Y70.127 E3.8226
G1 X144.496 Y70.346 E3.8349
G1 X144.552 Y70.394 E3.8373
G1 X144.940 Y70.780 E3.8555
G1 X144.988 Y70.835 E3.8580
G1 X145.209 Y71.132 E3.8703
G1 X145.249 Y71.194 E3.8727
G1 X145.606 Y71.857 E3.8978
G1 X145.640 Y71.936 E3.9006
G1 X145.776 Y72.346 E3.9150
G1 X145.796 Y72.430 E3.9178
G1 X145.881 Y72.997 E3.9369
G1 X145.885 Y73.034 E3.9382
G1 X145.899 Y73.219 E3.9443
G1 X145.900 Y73.256 E3.9456
G1 X145.900 Y89.541 E4.4872
G1 X145.899 Y89.577 E4.4884
G1 X145.885 Y89.759 E4.4945
G1 X145.881 Y89.795 E4.4957
G1 X145.800 Y90.353 E4.5144
G1 X145.780 Y90.436 E4.5173
G1 X145.648 Y90.841 E4.5314
G1 X145.615 Y90.920 E4.5343
G1 X145.236 Y91.636 E4.5612
G1 X145.182 Y91.718 E4.5645
G1 X144.871 Y92.100 E4.5809
G1 X144.802 Y92.170 E4.5841
G1 X144.201 Y92.669 E4.6101
G1 X144.141 Y92.712 E4.6126
G1 X143.825 Y92.903 E4.6248
G1 X143.760 Y92.936 E4.6273
G1 X143.285 Y93.135 E4.6444
G1 X143.228 Y93.155 E4.6464
G1 X142.932 Y93.239 E4.6567
G1 X142.872 Y93.252 E4.6587
G1 X142.365 Y93.330 E4.6758
G1 X142.327 Y93.334 E4.6770
G1 X142.138 Y93.348 E4.6833
G1 X142.100 Y93.350 E4.6846
G1 X128.309 Y93.350 E5.1433
G1 X128.273 Y93.349 E5.1445
G1 X128.091 Y93.335 E5.1506
G1 X128.055 Y93.331 E5.1518
G1 X127.497 Y93.250 E5.1705
G1 X127.414 Y93.230 E5.1734
G1 X127.009 Y93.098 E5.1875
G1 X126.930 Y93.065 E5.1904
G1 X126.268 Y92.715 E5.2153
G1 X126.206 Y92.676 E5.2177
G1 X125.909 Y92.458 E5.2300
G1 X125.853 Y92.410 E5.2324
G1 X125.487 Y92.048 E5.2495
G1 X125.446 Y92.002 E5.2516
G1 X125.256 Y91.761 E5.2618
G1 X125.221 Y91.710 E5.2638
G1 X124.994 Y91.336 E5.2784
G1 X124.836 Y91.636 E5.2897
G1 X124.782 Y91.718 E5.2929
G1 X124.471 Y92.100 E5.3093
G1 X124.402 Y92.170 E5.3126
G1 X123.801 Y92.669 E5.3386
G1 X123.741 Y92.711 E5.3410
G1 X123.425 Y92.903 E5.3533
G1 X123.360 Y92.936 E5.3557
G1 X122.885 Y93.135 E5.3728
G1 X122.828 Y93.155 E5.3749
G1 X122.532 Y93.239 E5.3851
G1 X122.472 Y93.252 E5.3871
G1 X121.965 Y93.330 E5.4042
G1 X121.927 Y93.334 E5.4055
G1 X121.738 Y93.348 E5.4118
G1 X121.700 Y93.350 E5.4131
G1 X107.909 Y93.350 E5.8717
G1 X107.873 Y93.349 E5.8729
G1 X107.691 Y93.335 E5.8790
G1 X107.655 Y93.331 E5.8802
G1 X107.097 Y93.250 E5.8990
G1 X107.014 Y93.230 E5.9018
G1 X106.609 Y93.098 E5.9160
G1 X106.530 Y93.065 E5.9188
G1 X105.868 Y92.715 E5.9437
G1 X105.806 Y92.676 E5.9462
G1 X105.509 Y92.458 E5.9584
G1 X105.453 Y92.410 E5.9609
G1 X105.099 Y92.060 E5.9774
G1 X105.099 Y92.757 E6.0006
G1 X105.098 Y92.797 E6.0019
G1 X105.082 Y92.995 E6.0085
G1 X105.077 Y93.035 E6.0099
G1 X104.990 Y93.579 E6.0282
G1 X104.977 Y93.636 E6.0301
G1 X104.898 Y93.917 E6.0398
G1 X104.879 Y93.972 E6.0418
G1 X104.706 Y94.388 E6.0568
G1 X104.681 Y94.441 E6.0587
G1 X104.536 Y94.698 E6.0685
G1 X104.505 Y94.748 E6.0705
G1 X104.119 Y95.280 E6.0923
G1 X104.068 Y95.339 E6.0950
G1 X103.789 Y95.617 E6.1080
G1 X103.751 Y95.650 E6.1097
G1 X120.861 Y95.650 E6.6788
G1 X120.886 Y95.651 E6.6796
G1 X121.008 Y95.657 E6.6837
G1 X121.033 Y95.658 E6.6845
G1 X121.411 Y95.696 E6.6971
G1 X121.460 Y95.703 E6.6988
G1 X121.701 Y95.751 E6.7070
G1 X121.748 Y95.763 E6.7086
G1 X122.230 Y95.909 E6.7253
G1 X122.299 Y95.935 E6.7278
G1 X122.632 Y96.093 E6.7400
G1 X122.696 Y96.129 E6.7425
G1 X123.378 Y96.585 E6.7698
G1 X123.454 Y96.648 E6.7730
G1 X123.802 Y96.996 E6.7894
G1 X123.865 Y97.072 E6.7927
G1 X124.355 Y97.805 E6.8220
G1 X124.401 Y97.892 E6.8253
G1 X124.590 Y98.347 E6.8417
G1 X124.618 Y98.441 E6.8449
G1 X124.766 Y99.186 E6.8702
G1 X124.774 Y99.234 E6.8718
G1 X124.798 Y99.479 E6.8800
G1 X124.800 Y99.528 E6.8817
G1 X124.795 Y110.303 E7.2400
G1 X124.791 Y110.364 E7.2421
G1 X124.754 Y110.668 E7.2523
G1 X124.743 Y110.728 E7.2543
G1 X124.597 Y111.311 E7.2743
G1 X124.578 Y111.369 E7.2763
G1 X124.468 Y111.656 E7.2865
G1 X124.442 Y111.711 E7.2886
G1 X124.205 Y112.155 E7.3053
G1 X124.173 Y112.207 E7.3073
G1 X123.996 Y112.459 E7.3175
G1 X123.957 Y112.506 E7.3196
G1 X123.533 Y112.974 E7.3406
G1 X123.480 Y113.025 E7.3430
G1 X123.195 Y113.259 E7.3553
G1 X123.135 Y113.301 E7.3578
G1 X122.540 Y113.658 E7.3808
G1 X122.463 Y113.695 E7.3837
G1 X122.062 Y113.850 E7.3980
G1 X121.979 Y113.874 E7.4008
G1 X121.265 Y114.016 E7.4251
G1 X121.216 Y114.024 E7.4267
G1 X120.972 Y114.048 E7.4349
G1 X120.923 Y114.050 E7.4365
G1 X98.776 Y114.050 E8.1731
G1 X98.726 Y114.048 E8.1748
G1 X98.480 Y114.023 E8.1830
G1 X98.431 Y114.016 E8.1846
G1 X97.745 Y113.878 E8.2079
G1 X97.674 Y113.859 E8.2104
G1 X97.326 Y113.733 E8.2227
G1 X97.258 Y113.703 E8.2251
G1 X96.814 Y113.464 E8.2419
G1 X96.771 Y113.439 E8.2435
G1 X96.567 Y113.301 E8.2517
G1 X96.528 Y113.272 E8.2534
G1 X96.138 Y112.951 E8.2702
G1 X96.085 Y112.900 E8.2726
G1 X95.900 Y112.694 E8.2818
G1 X95.900 Y115.741 E8.3832
G1 X95.899 Y115.777 E8.3844
G1 X95.885 Y115.959 E8.3904
G1 X95.881 Y115.995 E8.3916
G1 X95.800 Y116.553 E8.4104
G1 X95.780 Y116.636 E8.4132
G1 X95.648 Y117.041 E8.4274
G1 X95.615 Y117.120 E8.4302
G1 X95.265 Y117.782 E8.4551
G1 X95.226 Y117.844 E8.4576
G1 X95.008 Y118.141 E8.4698
G1 X94.960 Y118.197 E8.4723
G1 X94.611 Y118.550 E8.4888
G1 X108.961 Y118.550 E8.9661
G1 X108.986 Y118.551 E8.9669
G1 X109.109 Y118.557 E8.9710
G1 X109.133 Y118.558 E8.9718
G1 X109.573 Y118.602 E8.9865
G1 X109.645 Y118.614 E8.9890
G1 X110.003 Y118.704 E9.0012
G1 X110.073 Y118.727 E9.0037
G1 X110.831 Y119.041 E9.0310
G1 X110.918 Y119.087 E9.0342
G1 X111.327 Y119.361 E9.0506
G1 X111.403 Y119.423 E9.0539
G1 X111.983 Y120.004 E9.0812
G1 X112.031 Y120.059 E9.0836
G1 X112.251 Y120.355 E9.0959
G1 X112.290 Y120.418 E9.0983
G1 X112.400 Y120.623 E9.1061
G1 X112.510 Y120.418 E9.1138
G1 X112.549 Y120.355 E9.1163
G1 X112.769 Y120.059 E9.1285
G1 X112.817 Y120.003 E9.1310
G1 X113.353 Y119.467 E9.1562
G1 X113.409 Y119.419 E9.1587
G1 X113.705 Y119.199 E9.1709
G1 X113.768 Y119.160 E9.1734
G1 X114.266 Y118.893 E9.1922
G1 X114.333 Y118.864 E9.1946
G1 X114.680 Y118.739 E9.2069
G1 X114.751 Y118.720 E9.2093
G1 X115.435 Y118.584 E9.2325
G1 X115.484 Y118.576 E9.2342
G1 X115.728 Y118.552 E9.2423
G1 X115.777 Y118.550 E9.2440
G1 X137.861 Y118.550 E9.9785
G1 X137.886 Y118.551 E9.9793
G1 X138.009 Y118.557 E9.9834
G1 X138.033 Y118.558 E9.9842
G1 X138.473 Y118.602 E9.9989
G1 X138.545 Y118.614 E10.0014
G1 X138.903 Y118.704 E10.0136
G1 X138.973 Y118.727 E10.0161
G1 X139.731 Y119.041 E10.0434
G1 X139.818 Y119.087 E10.0466
G1 X140.227 Y119.361 E10.0630
G1 X140.303 Y119.423 E10.0663
G1 X140.883 Y120.004 E10.0936
G1 X140.931 Y120.059 E10.0960
G1 X141.151 Y120.355 E10.1083
G1 X141.190 Y120.418 E10.1107
G1 X141.457 Y120.916 E10.1295
G1 X141.486 Y120.983 E10.1320
G1 X141.611 Y121.330 E10.1442
G1 X141.630 Y121.401 E10.1467
G1 X141.766 Y122.086 E10.1699
G1 X141.774 Y122.134 E10.1715
G1 X141.798 Y122.379 E10.1797
G1 X141.800 Y122.428 E10.1813
G1 X141.795 Y133.172 E10.5387
G1 X141.793 Y133.221 E10.5403
G1 X141.769 Y133.465 E10.5485
G1 X141.761 Y133.513 E10.5501
G1 X141.669 Y133.976 E10.5658
G1 X141.654 Y134.036 E10.5678
G1 X141.557 Y134.327 E10.5780
G1 X141.535 Y134.384 E10.5801
G1 X141.265 Y134.955 E10.6011
G1 X141.228 Y135.019 E10.6035
G1 X141.024 Y135.326 E10.6158
G1 X140.978 Y135.384 E10.6182
G1 X140.533 Y135.874 E10.6403
G1 X140.480 Y135.925 E10.6427
G1 X140.195 Y136.159 E10.6550
G1 X140.135 Y136.201 E10.6574
G1 X139.767 Y136.422 E10.6717
G1 X139.778 Y136.427 E10.6721
G1 X140.057 Y136.598 E10.6830
G1 X140.111 Y136.636 E10.6851
G1 X140.584 Y137.019 E10.7054
G1 X140.632 Y137.064 E10.7076
G1 X140.858 Y137.301 E10.7185
G1 X140.900 Y137.352 E10.7207
G1 X141.184 Y137.743 E10.7367
