; G-Code generated by Simplify3D(R) Version 3.1.1
; mar. 28, 2019 at 2:40:50 
; Settings Summary
;   processName,Process1
;   applyToModels,FanSupport1
;   profileName,Anet Dense (modified)
;   profileVersion,2018-02-24 21:31:02
;   baseProfile,Default (modified)
;   printMaterial,PLA
;   printQuality,Medium
;   printExtruders,
;   extruderName,Primary Extruder
;   extruderToolheadNumber,0
;   extruderDiameter,0.4
;   extruderAutoWidth,0
;   extruderWidth,0.4
;   extrusionMultiplier,1
;   extruderUseRetract,1
;   extruderRetractionDistance,8
;   extruderExtraRestartDistance,0
;   extruderRetractionZLift,0.2
;   extruderRetractionSpeed,4800
;   extruderUseCoasting,0
;   extruderCoastingDistance,0.1
;   extruderUseWipe,0
;   extruderWipeDistance,5
;   primaryExtruder,0
;   layerHeight,0.2
;   topSolidLayers,2
;   bottomSolidLayers,2
;   perimeterOutlines,1
;   printPerimetersInsideOut,1
;   startPointOption,3
;   startPointOriginX,0
;   startPointOriginY,0
;   startPointOriginZ,500
;   sequentialIslands,0
;   spiralVaseMode,0
;   firstLayerHeightPercentage,100
;   firstLayerWidthPercentage,100
;   firstLayerUnderspeed,0.6
;   useRaft,0
;   raftExtruder,0
;   raftLayers,4
;   raftOffset,2
;   raftSeparationDistance,0.14
;   raftInfill,75
;   disableRaftBaseLayers,0
;   useSkirt,1
;   skirtExtruder,0
;   skirtLayers,1
;   skirtOutlines,3
;   skirtOffset,4
;   usePrimePillar,0
;   primePillarExtruder,999
;   primePillarWidth,12
;   primePillarLocation,7
;   primePillarSpeedMultiplier,1
;   useOozeShield,0
;   oozeShieldExtruder,999
;   oozeShieldOffset,2
;   oozeShieldOutlines,1
;   oozeShieldSidewallShape,1
;   oozeShieldSidewallAngle,30
;   oozeShieldSpeedMultiplier,1
;   infillExtruder,0
;   internalInfillPattern,Fast Honeycomb
;   externalInfillPattern,Rectilinear
;   infillPercentage,10
;   outlineOverlapPercentage,20
;   infillExtrusionWidthPercentage,100
;   minInfillLength,2
;   infillLayerInterval,1
;   infillAngles,0
;   overlapInfillAngles,0
;   generateSupport,0
;   supportExtruder,0
;   supportInfillPercentage,25
;   supportExtraInflation,0.6
;   denseSupportLayers,0
;   denseSupportInfillPercentage,20
;   supportLayerInterval,1
;   supportHorizontalPartOffset,0.3
;   supportUpperSeparationLayers,1
;   supportLowerSeparationLayers,0
;   supportType,1
;   supportGridSpacing,4
;   maxOverhangAngle,45
;   supportAngles,30
;   temperatureName,Primary Extruder,Bed
;   temperatureNumber,0,0
;   temperatureSetpointCount,1,1
;   temperatureSetpointLayers,1,1
;   temperatureSetpointTemperatures,210,45
;   temperatureStabilizeAtStartup,1,1
;   temperatureHeatedBed,0,1
;   temperatureRelayBetweenLayers,0,0
;   temperatureRelayBetweenLoops,0,0
;   fanLayers,0,2
;   fanSpeeds,0,60
;   blipFanToFullPower,0
;   adjustSpeedForCooling,0
;   minSpeedLayerTime,20
;   minCoolingSpeedSlowdown,60
;   increaseFanForCooling,1
;   minFanLayerTime,15
;   maxCoolingFanSpeed,100
;   increaseFanForBridging,1
;   bridgingFanSpeed,100
;   use5D,1
;   relativeEdistances,0
;   allowEaxisZeroing,1
;   independentExtruderAxes,0
;   includeM10123,0
;   stickySupport,1
;   applyToolheadOffsets,0
;   gcodeXoffset,0
;   gcodeYoffset,0
;   gcodeZoffset,0
;   overrideMachineDefinition,1
;   machineTypeOverride,0
;   strokeXoverride,200
;   strokeYoverride,200
;   strokeZoverride,250
;   originOffsetXoverride,0
;   originOffsetYoverride,0
;   originOffsetZoverride,0
;   homeXdirOverride,-1
;   homeYdirOverride,-1
;   homeZdirOverride,-1
;   flipXoverride,1
;   flipYoverride,-1
;   flipZoverride,1
;   toolheadOffsets,0,0|0,0|0,0|0,0|0,0|0,0
;   overrideFirmwareConfiguration,0
;   firmwareTypeOverride,RepRap (Marlin/Repetier/Sprinter)
;   GPXconfigOverride,r2
;   baudRateOverride,115200
;   overridePrinterModels,0
;   printerModelsOverride
;   startingGcode,G28; home all,G1 Z8 F3000; lift,G1 X70 Y50 F1500; avoid binder clips,G1 Z2 F3000; go down to 2mm ,G92 E0; reset extrusion distance
;   layerChangeGcode,
;   retractionGcode,
;   toolChangeGcode,
;   endingGcode,M104 S0 ; turn off extruder,M140 S0 ; turn off bed,G28 X0 Y0 ; home x and y,M106 S0 ; turn off fan,M84 ; disable motors
;   exportFileFormat,gcode
;   celebration,0
;   celebrationSong,Random Song
;   postProcessing,
;   defaultSpeed,2400
;   outlineUnderspeed,0.9
;   solidInfillUnderspeed,1
;   supportUnderspeed,1
;   rapidXYspeed,6000
;   rapidZspeed,3000
;   minBridgingArea,50
;   bridgingExtraInflation,0
;   bridgingExtrusionMultiplier,1
;   bridgingSpeedMultiplier,1
;   filamentDiameter,2.85
;   filamentPricePerKg,20
;   filamentDensity,1.25
;   useMinPrintHeight,0
;   minPrintHeight,0.4
;   useMaxPrintHeight,1
;   maxPrintHeight,2
;   useDiaphragm,0
;   diaphragmLayerInterval,80
;   robustSlicing,1
;   mergeAllIntoSolid,0
;   onlyRetractWhenCrossingOutline,0
;   retractBetweenLayers,0
;   useRetractionMinTravel,1
;   retractionMinTravel,2
;   retractWhileWiping,0
;   onlyWipeOutlines,0
;   avoidCrossingOutline,1
;   maxMovementDetourFactor,20
;   toolChangeRetractionDistance,7
;   toolChangeExtraRestartDistance,-0.4
;   toolChangeRetractionSpeed,480
;   allowThinWallGapFill,1
;   thinWallAllowedOverlapPercentage,50
;   horizontalSizeCompensation,0
G90
M82
M140 S45
M190 S45
M104 S210 T0
M109 S210 T0
G28; home all
G1 Z8 F3000; lift
G1 X70 Y50 F1500; avoid binder clips
G1 Z2 F3000; go down to 2mm 
G92 E0; reset extrusion distance
G92 E0
G1 E-8.0000 F4800
G1 Z0.400 F3000
; layer 1, Z = 0.2
T0
; tool H0.200 W0.400
; skirt
G1 X43.712 Y43.883 F6000
G1 Z0.200 F3000
G1 E0.0000 F1440
G92 E0
G1 X43.883 Y43.712 E0.0030 F1440
G1 X43.902 Y43.694 E0.0034
G1 X44.557 Y43.106 E0.0144
G1 X44.576 Y43.090 E0.0147
G1 X44.750 Y42.948 E0.0175
G1 X44.770 Y42.933 E0.0178
G1 X45.471 Y42.420 E0.0287
G1 X45.491 Y42.406 E0.0290
G1 X45.674 Y42.285 E0.0318
G1 X45.695 Y42.272 E0.0321
G1 X46.439 Y41.832 E0.0429
G1 X46.460 Y41.820 E0.0432
G1 X46.651 Y41.719 E0.0459
G1 X46.672 Y41.708 E0.0462
G1 X47.454 Y41.342 E0.0571
G1 X47.475 Y41.333 E0.0574
G1 X47.674 Y41.251 E0.0601
G1 X47.697 Y41.242 E0.0604
G1 X48.509 Y40.952 E0.0712
G1 X48.532 Y40.944 E0.0715
G1 X48.739 Y40.882 E0.0742
G1 X48.762 Y40.875 E0.0745
G1 X49.601 Y40.664 E0.0853
G1 X49.625 Y40.659 E0.0857
G1 X49.840 Y40.615 E0.0884
G1 X49.864 Y40.611 E0.0887
G1 X50.723 Y40.482 E0.0996
G1 X50.748 Y40.479 E0.0999
G1 X50.971 Y40.457 E0.1027
G1 X50.996 Y40.455 E0.1030
G1 X51.810 Y40.414 E0.1133
G1 X51.822 Y40.414 E0.1134
G1 X51.933 Y40.411 E0.1148
G1 X51.945 Y40.411 E0.1150
G1 X125.690 Y40.375 E1.0397
G1 X125.695 Y40.375 E1.0398
G1 X150.724 Y40.413 E1.3537
G1 X168.053 Y40.411 E1.5710
G1 X168.065 Y40.411 E1.5711
G1 X168.177 Y40.414 E1.5726
G1 X168.189 Y40.414 E1.5727
G1 X169.004 Y40.455 E1.5829
G1 X169.029 Y40.457 E1.5832
G1 X169.252 Y40.479 E1.5861
G1 X169.277 Y40.482 E1.5864
G1 X170.136 Y40.611 E1.5973
G1 X170.160 Y40.615 E1.5976
G1 X170.375 Y40.659 E1.6003
G1 X170.399 Y40.664 E1.6006
G1 X171.238 Y40.875 E1.6115
G1 X171.261 Y40.882 E1.6118
G1 X171.468 Y40.944 E1.6145
G1 X171.491 Y40.952 E1.6148
G1 X172.303 Y41.242 E1.6256
G1 X172.326 Y41.251 E1.6259
G1 X172.525 Y41.333 E1.6286
G1 X172.546 Y41.342 E1.6289
G1 X173.328 Y41.708 E1.6397
G1 X173.349 Y41.719 E1.6400
G1 X173.540 Y41.820 E1.6427
G1 X173.561 Y41.832 E1.6430
G1 X174.305 Y42.272 E1.6539
G1 X174.326 Y42.285 E1.6542
G1 X174.509 Y42.406 E1.6570
G1 X174.529 Y42.420 E1.6573
G1 X175.230 Y42.933 E1.6681
G1 X175.250 Y42.948 E1.6685
G1 X175.424 Y43.090 E1.6713
G1 X175.443 Y43.106 E1.6716
G1 X176.098 Y43.694 E1.6826
G1 X176.117 Y43.712 E1.6830
G1 X176.288 Y43.883 E1.6860
G1 X176.306 Y43.902 E1.6863
G1 X176.894 Y44.557 E1.6973
G1 X176.910 Y44.576 E1.6977
G1 X177.052 Y44.750 E1.7005
G1 X177.067 Y44.770 E1.7008
G1 X177.580 Y45.471 E1.7117
G1 X177.594 Y45.491 E1.7120
G1 X177.715 Y45.674 E1.7147
G1 X177.728 Y45.695 E1.7150
G1 X178.168 Y46.439 E1.7259
G1 X178.180 Y46.460 E1.7262
G1 X178.281 Y46.651 E1.7289
G1 X178.292 Y46.672 E1.7292
G1 X178.658 Y47.453 E1.7400
G1 X178.667 Y47.475 E1.7403
G1 X178.749 Y47.674 E1.7430
G1 X178.758 Y47.697 E1.7433
G1 X179.048 Y48.509 E1.7541
G1 X179.056 Y48.532 E1.7544
G1 X179.118 Y48.739 E1.7572
G1 X179.125 Y48.762 E1.7575
G1 X179.336 Y49.601 E1.7683
G1 X179.341 Y49.625 E1.7686
G1 X179.385 Y49.840 E1.7714
G1 X179.389 Y49.864 E1.7717
G1 X179.518 Y50.723 E1.7826
G1 X179.521 Y50.748 E1.7829
G1 X179.543 Y50.971 E1.7857
G1 X179.545 Y50.996 E1.7860
G1 X179.586 Y51.810 E1.7962
G1 X179.586 Y51.822 E1.7964
G1 X179.589 Y51.933 E1.7978
G1 X179.589 Y51.945 E1.7979
G1 X179.625 Y125.689 E2.7227
G1 X179.625 Y125.693 E2.7227
G1 X179.589 Y168.056 E3.2540
G1 X179.589 Y168.069 E3.2542
G1 X179.586 Y168.178 E3.2555
G1 X179.586 Y168.190 E3.2557
G1 X179.545 Y169.004 E3.2659
G1 X179.543 Y169.029 E3.2662
G1 X179.521 Y169.252 E3.2690
G1 X179.518 Y169.277 E3.2693
G1 X179.389 Y170.136 E3.2802
G1 X179.385 Y170.160 E3.2805
G1 X179.341 Y170.375 E3.2833
G1 X179.336 Y170.399 E3.2836
G1 X179.125 Y171.238 E3.2944
G1 X179.118 Y171.261 E3.2947
G1 X179.056 Y171.468 E3.2975
G1 X179.048 Y171.491 E3.2978
G1 X178.758 Y172.303 E3.3086
G1 X178.749 Y172.326 E3.3089
G1 X178.667 Y172.525 E3.3116
G1 X178.658 Y172.546 E3.3119
G1 X178.292 Y173.328 E3.3227
G1 X178.281 Y173.349 E3.3230
G1 X178.180 Y173.540 E3.3257
G1 X178.168 Y173.561 E3.3260
G1 X177.728 Y174.305 E3.3368
G1 X177.715 Y174.326 E3.3372
G1 X177.594 Y174.509 E3.3399
G1 X177.580 Y174.529 E3.3402
G1 X177.067 Y175.230 E3.3511
G1 X177.052 Y175.250 E3.3514
G1 X176.910 Y175.424 E3.3542
G1 X176.894 Y175.443 E3.3545
G1 X176.306 Y176.098 E3.3656
G1 X176.288 Y176.117 E3.3659
G1 X176.117 Y176.288 E3.3689
G1 X176.098 Y176.306 E3.3693
G1 X175.443 Y176.894 E3.3803
G1 X175.424 Y176.910 E3.3806
G1 X175.250 Y177.052 E3.3834
G1 X175.230 Y177.067 E3.3837
G1 X174.529 Y177.580 E3.3946
G1 X174.509 Y177.594 E3.3949
G1 X174.326 Y177.715 E3.3977
G1 X174.305 Y177.728 E3.3980
G1 X173.561 Y178.168 E3.4088
G1 X173.540 Y178.180 E3.4091
G1 X173.349 Y178.281 E3.4119
G1 X173.328 Y178.292 E3.4122
G1 X172.546 Y178.658 E3.4230
G1 X172.525 Y178.667 E3.4233
G1 X172.326 Y178.749 E3.4260
G1 X172.303 Y178.758 E3.4263
G1 X171.491 Y179.048 E3.4371
G1 X171.468 Y179.056 E3.4374
G1 X171.261 Y179.118 E3.4401
G1 X171.238 Y179.125 E3.4404
G1 X170.399 Y179.336 E3.4513
G1 X170.375 Y179.341 E3.4516
G1 X170.160 Y179.385 E3.4543
G1 X170.136 Y179.389 E3.4546
G1 X169.277 Y179.518 E3.4655
G1 X169.252 Y179.521 E3.4658
G1 X169.029 Y179.543 E3.4686
G1 X169.004 Y179.545 E3.4690
G1 X168.190 Y179.586 E3.4792
G1 X168.178 Y179.586 E3.4793
G1 X168.067 Y179.589 E3.4807
G1 X168.055 Y179.589 E3.4809
G1 X94.311 Y179.625 E4.4057
G1 X94.307 Y179.625 E4.4057
G1 X51.944 Y179.589 E4.9370
G1 X51.931 Y179.589 E4.9371
G1 X51.822 Y179.586 E4.9385
G1 X51.810 Y179.586 E4.9386
G1 X50.996 Y179.545 E4.9488
G1 X50.971 Y179.543 E4.9492
G1 X50.748 Y179.521 E4.9520
G1 X50.723 Y179.518 E4.9523
G1 X49.864 Y179.389 E4.9632
G1 X49.840 Y179.385 E4.9635
G1 X49.625 Y179.341 E4.9662
G1 X49.601 Y179.336 E4.9665
G1 X48.762 Y179.125 E4.9774
G1 X48.739 Y179.118 E4.9777
G1 X48.532 Y179.056 E4.9804
G1 X48.509 Y179.048 E4.9807
G1 X47.697 Y178.758 E4.9915
G1 X47.674 Y178.749 E4.9918
G1 X47.475 Y178.667 E4.9945
G1 X47.453 Y178.658 E4.9948
G1 X46.672 Y178.292 E5.0056
G1 X46.651 Y178.281 E5.0059
G1 X46.460 Y178.180 E5.0087
G1 X46.439 Y178.168 E5.0090
G1 X45.695 Y177.728 E5.0198
G1 X45.674 Y177.715 E5.0201
G1 X45.491 Y177.594 E5.0229
G1 X45.471 Y177.580 E5.0232
G1 X44.770 Y177.067 E5.0341
G1 X44.750 Y177.052 E5.0344
G1 X44.576 Y176.910 E5.0372
G1 X44.557 Y176.894 E5.0375
G1 X43.902 Y176.306 E5.0485
G1 X43.883 Y176.288 E5.0489
G1 X43.712 Y176.117 E5.0519
G1 X43.694 Y176.098 E5.0522
G1 X43.106 Y175.443 E5.0633
G1 X43.090 Y175.424 E5.0636
G1 X42.948 Y175.250 E5.0664
G1 X42.933 Y175.230 E5.0667
G1 X42.420 Y174.529 E5.0776
G1 X42.406 Y174.509 E5.0779
G1 X42.285 Y174.326 E5.0807
G1 X42.272 Y174.305 E5.0810
G1 X41.832 Y173.561 E5.0918
G1 X41.820 Y173.540 E5.0921
G1 X41.719 Y173.349 E5.0948
G1 X41.708 Y173.328 E5.0951
G1 X41.342 Y172.546 E5.1059
G1 X41.333 Y172.525 E5.1062
G1 X41.251 Y172.326 E5.1089
G1 X41.242 Y172.303 E5.1092
G1 X40.952 Y171.491 E5.1201
G1 X40.944 Y171.468 E5.1204
G1 X40.882 Y171.261 E5.1231
G1 X40.875 Y171.238 E5.1234
G1 X40.664 Y170.399 E5.1342
G1 X40.659 Y170.375 E5.1345
G1 X40.615 Y170.160 E5.1373
G1 X40.611 Y170.136 E5.1376
G1 X40.482 Y169.277 E5.1485
G1 X40.479 Y169.252 E5.1488
G1 X40.457 Y169.029 E5.1516
G1 X40.455 Y169.004 E5.1519
G1 X40.414 Y168.190 E5.1621
G1 X40.414 Y168.178 E5.1623
G1 X40.411 Y168.067 E5.1637
G1 X40.411 Y168.055 E5.1638
G1 X40.375 Y94.311 E6.0886
G1 X40.375 Y94.307 E6.0887
G1 X40.411 Y51.944 E6.6199
G1 X40.411 Y51.931 E6.6201
G1 X40.414 Y51.822 E6.6214
G1 X40.414 Y51.810 E6.6216
G1 X40.455 Y50.996 E6.6318
G1 X40.457 Y50.971 E6.6321
G1 X40.479 Y50.748 E6.6349
G1 X40.482 Y50.723 E6.6352
G1 X40.611 Y49.864 E6.6461
G1 X40.615 Y49.840 E6.6464
G1 X40.659 Y49.625 E6.6492
G1 X40.664 Y49.601 E6.6495
G1 X40.875 Y48.762 E6.6604
G1 X40.882 Y48.739 E6.6607
G1 X40.944 Y48.532 E6.6634
G1 X40.952 Y48.509 E6.6637
G1 X41.242 Y47.697 E6.6745
G1 X41.251 Y47.674 E6.6748
G1 X41.333 Y47.475 E6.6775
G1 X41.342 Y47.454 E6.6778
G1 X41.708 Y46.672 E6.6886
G1 X41.719 Y46.651 E6.6889
G1 X41.820 Y46.460 E6.6916
G1 X41.832 Y46.439 E6.6919
G1 X42.272 Y45.695 E6.7028
G1 X42.285 Y45.674 E6.7031
G1 X42.406 Y45.491 E6.7058
G1 X42.420 Y45.471 E6.7061
G1 X42.933 Y44.770 E6.7170
G1 X42.948 Y44.750 E6.7173
G1 X43.090 Y44.576 E6.7201
G1 X43.106 Y44.557 E6.7205
G1 X43.694 Y43.902 E6.7315
G1 X43.712 Y43.883 E6.7318
G1 X43.999 Y44.162 F6000
G92 E0
G1 X44.162 Y43.999 E0.0029 F1440
G1 X44.174 Y43.988 E0.0031
G1 X44.820 Y43.407 E0.0140
G1 X44.832 Y43.397 E0.0142
G1 X44.998 Y43.262 E0.0169
G1 X45.010 Y43.253 E0.0171
G1 X45.703 Y42.746 E0.0278
G1 X45.715 Y42.737 E0.0280
G1 X45.890 Y42.622 E0.0306
G1 X45.902 Y42.614 E0.0308
G1 X46.638 Y42.179 E0.0415
G1 X46.651 Y42.172 E0.0417
G1 X46.834 Y42.075 E0.0443
G1 X46.846 Y42.069 E0.0445
G1 X47.619 Y41.706 E0.0552
G1 X47.632 Y41.701 E0.0554
G1 X47.822 Y41.622 E0.0580
G1 X47.836 Y41.617 E0.0581
G1 X48.639 Y41.330 E0.0688
G1 X48.653 Y41.326 E0.0690
G1 X48.851 Y41.266 E0.0716
G1 X48.864 Y41.262 E0.0718
G1 X49.694 Y41.053 E0.0825
G1 X49.708 Y41.050 E0.0827
G1 X49.914 Y41.009 E0.0853
G1 X49.928 Y41.006 E0.0855
G1 X50.778 Y40.878 E0.0963
G1 X50.793 Y40.876 E0.0965
G1 X51.006 Y40.855 E0.0992
G1 X51.021 Y40.854 E0.0994
G1 X51.827 Y40.814 E0.1095
G1 X51.835 Y40.814 E0.1096
G1 X51.940 Y40.811 E0.1109
G1 X51.948 Y40.811 E0.1110
G1 X125.690 Y40.775 E1.0357
G1 X125.695 Y40.775 E1.0358
G1 X150.724 Y40.813 E1.3497
G1 X168.050 Y40.811 E1.5670
G1 X168.058 Y40.811 E1.5670
G1 X168.164 Y40.814 E1.5684
G1 X168.172 Y40.814 E1.5685
G1 X168.979 Y40.854 E1.5786
G1 X168.994 Y40.855 E1.5788
G1 X169.207 Y40.876 E1.5815
G1 X169.222 Y40.878 E1.5817
G1 X170.072 Y41.006 E1.5925
G1 X170.086 Y41.009 E1.5926
G1 X170.292 Y41.050 E1.5953
G1 X170.306 Y41.053 E1.5955
G1 X171.136 Y41.262 E1.6062
G1 X171.149 Y41.266 E1.6064
G1 X171.347 Y41.326 E1.6089
G1 X171.361 Y41.330 E1.6091
G1 X172.164 Y41.617 E1.6198
G1 X172.178 Y41.622 E1.6200
G1 X172.368 Y41.701 E1.6226
G1 X172.381 Y41.706 E1.6228
G1 X173.154 Y42.068 E1.6335
G1 X173.166 Y42.075 E1.6336
G1 X173.349 Y42.172 E1.6362
G1 X173.362 Y42.179 E1.6364
G1 X174.098 Y42.614 E1.6471
G1 X174.110 Y42.622 E1.6473
G1 X174.285 Y42.737 E1.6500
G1 X174.297 Y42.746 E1.6501
G1 X174.990 Y43.253 E1.6609
G1 X175.002 Y43.262 E1.6611
G1 X175.168 Y43.397 E1.6638
G1 X175.180 Y43.407 E1.6640
G1 X175.826 Y43.988 E1.6749
G1 X175.838 Y43.999 E1.6751
G1 X176.001 Y44.162 E1.6780
G1 X176.012 Y44.174 E1.6782
G1 X176.593 Y44.820 E1.6891
G1 X176.603 Y44.832 E1.6893
G1 X176.738 Y44.998 E1.6919
G1 X176.747 Y45.010 E1.6921
G1 X177.254 Y45.703 E1.7029
G1 X177.263 Y45.715 E1.7031
G1 X177.378 Y45.890 E1.7057
G1 X177.386 Y45.903 E1.7059
G1 X177.821 Y46.638 E1.7166
G1 X177.828 Y46.651 E1.7168
G1 X177.925 Y46.833 E1.7194
G1 X177.931 Y46.846 E1.7196
G1 X178.294 Y47.619 E1.7303
G1 X178.299 Y47.632 E1.7305
G1 X178.378 Y47.822 E1.7330
G1 X178.383 Y47.835 E1.7332
G1 X178.670 Y48.639 E1.7439
G1 X178.674 Y48.653 E1.7441
G1 X178.734 Y48.851 E1.7467
G1 X178.738 Y48.865 E1.7469
