; G-Code generated by Simplify3D(R) Version 3.1.1
; abr. 21, 2019 at 8:58:26 
; Settings Summary
;   processName,Process1
;   applyToModels,Test1
;   profileName,Anet Dense (modified)
;   profileVersion,2018-02-24 21:31:02
;   baseProfile,Default (modified)
;   printMaterial,PLA
;   printQuality,Medium
;   printExtruders,
;   extruderName,Primary Extruder
;   extruderToolheadNumber,0
;   extruderDiameter,0.4
;   extruderAutoWidth,0
;   extruderWidth,0.4
;   extrusionMultiplier,1
;   extruderUseRetract,1
;   extruderRetractionDistance,8
;   extruderExtraRestartDistance,0
;   extruderRetractionZLift,0.2
;   extruderRetractionSpeed,4800
;   extruderUseCoasting,0
;   extruderCoastingDistance,0.1
;   extruderUseWipe,0
;   extruderWipeDistance,5
;   primaryExtruder,0
;   layerHeight,0.2
;   topSolidLayers,0
;   bottomSolidLayers,0
;   perimeterOutlines,2
;   printPerimetersInsideOut,1
;   startPointOption,3
;   startPointOriginX,0
;   startPointOriginY,0
;   startPointOriginZ,500
;   sequentialIslands,0
;   spiralVaseMode,0
;   firstLayerHeightPercentage,100
;   firstLayerWidthPercentage,100
;   firstLayerUnderspeed,0.6
;   useRaft,0
;   raftExtruder,0
;   raftLayers,4
;   raftOffset,2
;   raftSeparationDistance,0.14
;   raftInfill,75
;   disableRaftBaseLayers,0
;   useSkirt,1
;   skirtExtruder,0
;   skirtLayers,1
;   skirtOutlines,1
;   skirtOffset,2
;   usePrimePillar,0
;   primePillarExtruder,999
;   primePillarWidth,12
;   primePillarLocation,7
;   primePillarSpeedMultiplier,1
;   useOozeShield,0
;   oozeShieldExtruder,999
;   oozeShieldOffset,2
;   oozeShieldOutlines,1
;   oozeShieldSidewallShape,1
;   oozeShieldSidewallAngle,30
;   oozeShieldSpeedMultiplier,1
;   infillExtruder,0
;   internalInfillPattern,Fast Honeycomb
;   externalInfillPattern,Rectilinear
;   infillPercentage,30
;   outlineOverlapPercentage,20
;   infillExtrusionWidthPercentage,100
;   minInfillLength,2
;   infillLayerInterval,1
;   infillAngles,0
;   overlapInfillAngles,0
;   generateSupport,0
;   supportExtruder,0
;   supportInfillPercentage,12
;   supportExtraInflation,0.6
;   denseSupportLayers,15
;   denseSupportInfillPercentage,30
;   supportLayerInterval,1
;   supportHorizontalPartOffset,0.6
;   supportUpperSeparationLayers,1
;   supportLowerSeparationLayers,0
;   supportType,0
;   supportGridSpacing,4
;   maxOverhangAngle,45
;   supportAngles,-45
;   temperatureName,Primary Extruder,Bed
;   temperatureNumber,0,0
;   temperatureSetpointCount,1,1
;   temperatureSetpointLayers,1,1
;   temperatureSetpointTemperatures,210,45
;   temperatureStabilizeAtStartup,1,1
;   temperatureHeatedBed,0,1
;   temperatureRelayBetweenLayers,0,0
;   temperatureRelayBetweenLoops,0,0
;   fanLayers,0,2
;   fanSpeeds,0,60
;   blipFanToFullPower,0
;   adjustSpeedForCooling,0
;   minSpeedLayerTime,20
;   minCoolingSpeedSlowdown,60
;   increaseFanForCooling,1
;   minFanLayerTime,15
;   maxCoolingFanSpeed,100
;   increaseFanForBridging,1
;   bridgingFanSpeed,100
;   use5D,1
;   relativeEdistances,0
;   allowEaxisZeroing,1
;   independentExtruderAxes,0
;   includeM10123,0
;   stickySupport,1
;   applyToolheadOffsets,0
;   gcodeXoffset,0
;   gcodeYoffset,0
;   gcodeZoffset,0
;   overrideMachineDefinition,1
;   machineTypeOverride,0
;   strokeXoverride,200
;   strokeYoverride,200
;   strokeZoverride,250
;   originOffsetXoverride,0
;   originOffsetYoverride,0
;   originOffsetZoverride,0
;   homeXdirOverride,-1
;   homeYdirOverride,-1
;   homeZdirOverride,-1
;   flipXoverride,1
;   flipYoverride,-1
;   flipZoverride,1
;   toolheadOffsets,0,0|0,0|0,0|0,0|0,0|0,0
;   overrideFirmwareConfiguration,0
;   firmwareTypeOverride,RepRap (Marlin/Repetier/Sprinter)
;   GPXconfigOverride,r2
;   baudRateOverride,115200
;   overridePrinterModels,0
;   printerModelsOverride
;   startingGcode,G28; home all,G1 Z8 F3000; lift,G1 X70 Y50 F1500; avoid binder clips,G1 Z2 F3000; go down to 2mm ,G92 E0; reset extrusion distance
;   layerChangeGcode,
;   retractionGcode,
;   toolChangeGcode,
;   endingGcode,M104 S0 ; turn off extruder,M140 S0 ; turn off bed,G28 X0 Y0 ; home x and y,M106 S0 ; turn off fan,M84 ; disable motors
;   exportFileFormat,gcode
;   celebration,0
;   celebrationSong,Random Song
;   postProcessing,
;   defaultSpeed,3000
;   outlineUnderspeed,0.9
;   solidInfillUnderspeed,1
;   supportUnderspeed,1
;   rapidXYspeed,6000
;   rapidZspeed,3000
;   minBridgingArea,50
;   bridgingExtraInflation,0
;   bridgingExtrusionMultiplier,1
;   bridgingSpeedMultiplier,1
;   filamentDiameter,1.75
;   filamentPricePerKg,20
;   filamentDensity,1.25
;   useMinPrintHeight,0
;   minPrintHeight,0.4
;   useMaxPrintHeight,0
;   maxPrintHeight,2
;   useDiaphragm,0
;   diaphragmLayerInterval,80
;   robustSlicing,1
;   mergeAllIntoSolid,0
;   onlyRetractWhenCrossingOutline,0
;   retractBetweenLayers,0
;   useRetractionMinTravel,1
;   retractionMinTravel,2
;   retractWhileWiping,0
;   onlyWipeOutlines,0
;   avoidCrossingOutline,1
;   maxMovementDetourFactor,20
;   toolChangeRetractionDistance,7
;   toolChangeExtraRestartDistance,-0.4
;   toolChangeRetractionSpeed,480
;   allowThinWallGapFill,1
;   thinWallAllowedOverlapPercentage,50
;   horizontalSizeCompensation,0
G90
M82
M140 S45
M190 S45
M104 S210 T0
M109 S210 T0
G28; home all
G1 Z8 F3000; lift
G1 X70 Y50 F1500; avoid binder clips
G1 Z2 F3000; go down to 2mm 
G92 E0; reset extrusion distance
G92 E0
G1 E-8.0000 F4800
G1 Z0.400 F3000
; layer 1, Z = 0.2
T0
; tool H0.200 W0.400
; skirt
G1 X16.082 Y59.300 F6000
G1 Z0.200 F3000
G1 E0.0000 F1440
G92 E0
G1 X183.918 Y59.300 E5.5823 F1800
G1 X183.992 Y59.330 E5.5849
G1 X185.220 Y60.558 E5.6427
G1 X185.250 Y60.632 E5.6453
G1 X185.250 Y139.368 E8.2641
G1 X185.220 Y139.442 E8.2667
G1 X183.992 Y140.670 E8.3245
G1 X183.918 Y140.700 E8.3271
G1 X16.082 Y140.700 E13.9094
G1 X16.008 Y140.670 E13.9120
G1 X14.780 Y139.442 E13.9698
G1 X14.750 Y139.368 E13.9724
G1 X14.750 Y60.632 E16.5912
G1 X14.780 Y60.558 E16.5939
G1 X16.008 Y59.330 E16.6516
G1 X16.082 Y59.300 E16.6543
G92 E0
G1 E-8.0000 F4800
G1 Z0.400 F3000
; inner perimeter
G1 X17.550 Y137.900 F6000
G1 Z0.200 F3000
G1 E0.0000 F4800
G92 E0
G1 X17.550 Y62.100 E2.5211 F1710
G1 X182.450 Y62.100 E8.0057
G1 X182.450 Y137.900 E10.5268
G1 X17.550 Y137.900 E16.0114
; outer perimeter
G1 X17.150 Y138.300 F6000
G92 E0
G1 X17.150 Y61.700 E2.5477 F1620
G1 X182.850 Y61.700 E8.0589
G1 X182.850 Y138.300 E10.6067
G1 X17.150 Y138.300 E16.1179
G92 E0
G1 E-8.0000 F4800
G1 Z0.400 F3000
; inner perimeter
G1 X21.812 Y117.099 F6000
G1 Z0.200 F3000
G1 E0.0000 F4800
G92 E0
G1 X22.363 Y117.078 E0.0183 F1710
G1 X22.904 Y116.973 E0.0367
G1 X23.423 Y116.787 E0.0550
G1 X23.908 Y116.523 E0.0734
G1 X24.346 Y116.189 E0.0917
G1 X24.729 Y115.792 E0.1100
G1 X25.046 Y115.341 E0.1284
G1 X25.291 Y114.846 E0.1467
G1 X25.457 Y114.321 E0.1651
G1 X25.541 Y113.776 E0.1834
G1 X25.541 Y113.224 E0.2017
G1 X25.457 Y112.679 E0.2201
G1 X25.291 Y112.154 E0.2384
G1 X25.046 Y111.659 E0.2568
G1 X24.729 Y111.208 E0.2751
G1 X24.346 Y110.811 E0.2934
G1 X23.908 Y110.477 E0.3118
G1 X23.423 Y110.213 E0.3301
G1 X22.904 Y110.027 E0.3485
G1 X22.363 Y109.922 E0.3668
G1 X21.812 Y109.901 E0.3851
G1 X21.264 Y109.964 E0.4035
G1 X20.733 Y110.110 E0.4218
G1 X20.229 Y110.336 E0.4402
G1 X19.767 Y110.636 E0.4585
G1 X19.355 Y111.002 E0.4769
G1 X19.004 Y111.428 E0.4952
G1 X18.722 Y111.902 E0.5135
G1 X18.516 Y112.413 E0.5319
G1 X18.390 Y112.950 E0.5502
G1 X18.348 Y113.500 E0.5686
G1 X18.390 Y114.050 E0.5869
G1 X18.516 Y114.587 E0.6052
G1 X18.722 Y115.098 E0.6236
G1 X19.004 Y115.572 E0.6419
G1 X19.355 Y115.998 E0.6603
G1 X19.767 Y116.364 E0.6786
G1 X20.229 Y116.664 E0.6969
G1 X20.733 Y116.890 E0.7153
G1 X21.264 Y117.036 E0.7336
G1 X21.812 Y117.099 E0.7520
; outer perimeter
G1 X21.827 Y116.698 F6000
G92 E0
G1 X22.317 Y116.679 E0.0163 F1620
G1 X22.798 Y116.586 E0.0326
G1 X23.259 Y116.421 E0.0489
G1 X23.690 Y116.186 E0.0652
G1 X24.079 Y115.889 E0.0815
G1 X24.419 Y115.536 E0.0978
G1 X24.701 Y115.136 E0.1141
G1 X24.919 Y114.696 E0.1304
G1 X25.066 Y114.229 E0.1467
G1 X25.141 Y113.745 E0.1630
G1 X25.141 Y113.255 E0.1793
G1 X25.066 Y112.771 E0.1956
G1 X24.919 Y112.304 E0.2119
G1 X24.701 Y111.864 E0.2282
G1 X24.419 Y111.464 E0.2445
G1 X24.079 Y111.111 E0.2608
G1 X23.690 Y110.814 E0.2771
G1 X23.259 Y110.579 E0.2934
G1 X22.798 Y110.414 E0.3097
G1 X22.317 Y110.321 E0.3260
G1 X21.827 Y110.302 E0.3423
G1 X21.341 Y110.358 E0.3585
G1 X20.868 Y110.488 E0.3748
G1 X20.421 Y110.688 E0.3911
G1 X20.010 Y110.955 E0.4074
G1 X19.644 Y111.281 E0.4237
G1 X19.332 Y111.659 E0.4400
G1 X19.082 Y112.080 E0.4563
G1 X18.899 Y112.534 E0.4726
G1 X18.787 Y113.011 E0.4889
G1 X18.749 Y113.500 E0.5052
G1 X18.787 Y113.989 E0.5215
G1 X18.899 Y114.466 E0.5378
G1 X19.082 Y114.920 E0.5541
G1 X19.332 Y115.341 E0.5704
G1 X19.644 Y115.719 E0.5867
G1 X20.010 Y116.045 E0.6030
G1 X20.421 Y116.312 E0.6193
G1 X20.868 Y116.512 E0.6356
G1 X21.341 Y116.642 E0.6519
G1 X21.827 Y116.698 E0.6682
G92 E0
G1 E-8.0000 F4800
G1 Z0.400 F3000
; inner perimeter
G1 X21.827 Y116.694 F6000
G1 X21.341 Y116.638 F6000
G1 X20.869 Y116.508 F6000
G1 X20.423 Y116.308 F6000
G1 X20.012 Y116.042 F6000
G1 X19.647 Y115.717 F6000
G1 X19.335 Y115.339 F6000
G1 X19.085 Y114.918 F6000
G1 X18.902 Y114.464 F6000
G1 X18.791 Y113.988 F6000
G1 X18.753 Y113.500 F6000
G1 X18.791 Y113.012 F6000
G1 X18.902 Y112.536 F6000
G1 X19.085 Y112.082 F6000
G1 X19.335 Y111.661 F6000
G1 X19.647 Y111.283 F6000
G1 X20.012 Y110.958 F6000
G1 X20.423 Y110.692 F6000
G1 X20.869 Y110.492 F6000
G1 X21.341 Y110.362 F6000
G1 X21.820 Y110.307 F6000
G1 X21.812 Y103.899 F6000
G1 Z0.200 F3000
G1 E0.0000 F4800
G92 E0
G1 X22.363 Y103.878 E0.0183 F1710
G1 X22.904 Y103.773 E0.0367
G1 X23.423 Y103.587 E0.0550
G1 X23.908 Y103.323 E0.0734
G1 X24.346 Y102.989 E0.0917
G1 X24.729 Y102.592 E0.1100
G1 X25.046 Y102.141 E0.1284
G1 X25.291 Y101.646 E0.1467
G1 X25.457 Y101.121 E0.1651
G1 X25.541 Y100.576 E0.1834
G1 X25.541 Y100.024 E0.2017
G1 X25.457 Y99.479 E0.2201
G1 X25.291 Y98.954 E0.2384
G1 X25.046 Y98.459 E0.2568
G1 X24.729 Y98.008 E0.2751
G1 X24.346 Y97.611 E0.2934
G1 X23.908 Y97.277 E0.3118
G1 X23.423 Y97.013 E0.3301
G1 X22.904 Y96.827 E0.3485
G1 X22.363 Y96.722 E0.3668
G1 X21.812 Y96.701 E0.3851
G1 X21.264 Y96.764 E0.4035
G1 X20.733 Y96.910 E0.4218
G1 X20.229 Y97.136 E0.4402
G1 X19.767 Y97.436 E0.4585
G1 X19.355 Y97.802 E0.4769
G1 X19.004 Y98.228 E0.4952
G1 X18.722 Y98.702 E0.5135
G1 X18.516 Y99.213 E0.5319
G1 X18.390 Y99.750 E0.5502
G1 X18.348 Y100.300 E0.5686
G1 X18.390 Y100.850 E0.5869
G1 X18.516 Y101.387 E0.6052
G1 X18.722 Y101.898 E0.6236
G1 X19.004 Y102.372 E0.6419
G1 X19.355 Y102.798 E0.6603
G1 X19.767 Y103.164 E0.6786
G1 X20.229 Y103.464 E0.6969
G1 X20.733 Y103.690 E0.7153
G1 X21.264 Y103.836 E0.7336
G1 X21.812 Y103.899 E0.7520
; outer perimeter
G1 X21.827 Y103.498 F6000
G92 E0
G1 X22.317 Y103.479 E0.0163 F1620
G1 X22.798 Y103.386 E0.0326
G1 X23.259 Y103.221 E0.0489
G1 X23.690 Y102.986 E0.0652
G1 X24.079 Y102.689 E0.0815
G1 X24.419 Y102.336 E0.0978
G1 X24.701 Y101.936 E0.1141
G1 X24.919 Y101.496 E0.1304
G1 X25.066 Y101.029 E0.1467
G1 X25.141 Y100.545 E0.1630
G1 X25.141 Y100.055 E0.1793
G1 X25.066 Y99.571 E0.1956
G1 X24.919 Y99.104 E0.2119
G1 X24.701 Y98.664 E0.2282
G1 X24.419 Y98.264 E0.2445
G1 X24.079 Y97.911 E0.2608
G1 X23.690 Y97.614 E0.2771
G1 X23.259 Y97.379 E0.2934
G1 X22.798 Y97.214 E0.3097
G1 X22.317 Y97.121 E0.3260
G1 X21.827 Y97.102 E0.3422
G1 X21.341 Y97.158 E0.3585
G1 X20.868 Y97.288 E0.3748
G1 X20.421 Y97.488 E0.3911
G1 X20.010 Y97.755 E0.4074
G1 X19.644 Y98.081 E0.4237
G1 X19.332 Y98.459 E0.4400
G1 X19.082 Y98.880 E0.4563
G1 X18.899 Y99.334 E0.4726
G1 X18.787 Y99.811 E0.4889
G1 X18.749 Y100.300 E0.5052
G1 X18.787 Y100.789 E0.5215
G1 X18.899 Y101.266 E0.5378
G1 X19.082 Y101.720 E0.5541
G1 X19.332 Y102.141 E0.5704
G1 X19.644 Y102.519 E0.5867
G1 X20.010 Y102.845 E0.6030
G1 X20.421 Y103.112 E0.6193
G1 X20.868 Y103.312 E0.6356
G1 X21.341 Y103.442 E0.6519
G1 X21.827 Y103.498 E0.6682
G92 E0
G1 E-8.0000 F4800
G1 Z0.400 F3000
; inner perimeter
G1 X35.198 Y105.863 F6000
G1 Z0.200 F3000
G1 E0.0000 F4800
G92 E0
G1 X35.650 Y105.902 E0.0151 F1710
G1 X36.102 Y105.863 E0.0302
G1 X36.540 Y105.745 E0.0453
G1 X36.951 Y105.554 E0.0603
G1 X37.323 Y105.293 E0.0754
G1 X37.643 Y104.973 E0.0905
G1 X37.904 Y104.601 E0.1056
G1 X38.095 Y104.190 E0.1207
G1 X38.213 Y103.752 E0.1358
G1 X38.252 Y103.300 E0.1509
G1 X38.213 Y102.848 E0.1660
G1 X38.095 Y102.410 E0.1810
G1 X37.904 Y101.999 E0.1961
G1 X37.643 Y101.627 E0.2112
G1 X37.323 Y101.307 E0.2263
G1 X36.951 Y101.046 E0.2414
G1 X36.540 Y100.855 E0.2565
G1 X36.102 Y100.737 E0.2716
G1 X35.650 Y100.698 E0.2867
G1 X35.198 Y100.737 E0.3017
G1 X34.760 Y100.855 E0.3168
G1 X34.349 Y101.046 E0.3319
G1 X33.977 Y101.307 E0.3470
G1 X33.657 Y101.627 E0.3621
G1 X33.396 Y101.999 E0.3772
G1 X33.205 Y102.410 E0.3923
G1 X33.087 Y102.848 E0.4074
G1 X33.048 Y103.300 E0.4224
G1 X33.087 Y103.752 E0.4375
G1 X33.205 Y104.190 E0.4526
G1 X33.396 Y104.601 E0.4677
G1 X33.657 Y104.973 E0.4828
G1 X33.977 Y105.293 E0.4979
G1 X34.349 Y105.554 E0.5130
G1 X34.760 Y105.745 E0.5280
G1 X35.198 Y105.863 E0.5431
; outer perimeter
G1 X35.268 Y105.467 F6000
G92 E0
G1 X35.650 Y105.501 E0.0128 F1620
G1 X36.032 Y105.467 E0.0255
G1 X36.403 Y105.368 E0.0383
G1 X36.750 Y105.206 E0.0510
G1 X37.065 Y104.986 E0.0638
G1 X37.336 Y104.715 E0.0766
G1 X37.556 Y104.400 E0.0893
G1 X37.718 Y104.053 E0.1021
G1 X37.817 Y103.682 E0.1148
G1 X37.851 Y103.300 E0.1276
G1 X37.817 Y102.918 E0.1404
G1 X37.718 Y102.547 E0.1531
G1 X37.556 Y102.200 E0.1659
G1 X37.336 Y101.885 E0.1786
G1 X37.065 Y101.614 E0.1914
G1 X36.750 Y101.394 E0.2041
G1 X36.403 Y101.232 E0.2169
G1 X36.032 Y101.133 E0.2297
G1 X35.650 Y101.099 E0.2424
G1 X35.268 Y101.133 E0.2552
G1 X34.897 Y101.232 E0.2679
G1 X34.550 Y101.394 E0.2807
G1 X34.235 Y101.614 E0.2935
G1 X33.964 Y101.885 E0.3062
G1 X33.744 Y102.200 E0.3190
G1 X33.582 Y102.547 E0.3317
G1 X33.483 Y102.918 E0.3445
G1 X33.449 Y103.300 E0.3573
G1 X33.483 Y103.682 E0.3700
G1 X33.582 Y104.053 E0.3828
G1 X33.744 Y104.400 E0.3955
G1 X33.964 Y104.715 E0.4083
G1 X34.235 Y104.986 E0.4211
G1 X34.550 Y105.206 E0.4338
G1 X34.897 Y105.368 E0.4466
G1 X35.268 Y105.467 E0.4593
G92 E0
G1 E-8.0000 F4800
G1 Z0.400 F3000
; inner perimeter
G1 X35.268 Y105.463 F6000
G1 X34.899 Y105.364 F6000
G1 X34.552 Y105.202 F6000
G1 X34.238 Y104.983 F6000
G1 X33.967 Y104.712 F6000
G1 X33.748 Y104.398 F6000
G1 X33.586 Y104.051 F6000
G1 X33.487 Y103.681 F6000
G1 X33.453 Y103.300 F6000
G1 X33.487 Y102.919 F6000
G1 X33.586 Y102.549 F6000
G1 X33.748 Y102.202 F6000
G1 X33.967 Y101.888 F6000
G1 X34.238 Y101.617 F6000
G1 X34.552 Y101.398 F6000
G1 X34.899 Y101.236 F6000
G1 X35.233 Y101.146 F6000
G1 X35.198 Y96.763 F6000
G1 Z0.200 F3000
G1 E0.0000 F4800
G92 E0
G1 X35.650 Y96.802 E0.0151 F1710
G1 X36.102 Y96.763 E0.0302
G1 X36.540 Y96.645 E0.0453
G1 X36.951 Y96.454 E0.0603
G1 X37.323 Y96.193 E0.0754
G1 X37.643 Y95.873 E0.0905
G1 X37.904 Y95.501 E0.1056
G1 X38.095 Y95.090 E0.1207
G1 X38.213 Y94.652 E0.1358
G1 X38.252 Y94.200 E0.1509
G1 X38.213 Y93.748 E0.1660
G1 X38.095 Y93.310 E0.1810
G1 X37.904 Y92.899 E0.1961
G1 X37.643 Y92.527 E0.2112
G1 X37.323 Y92.207 E0.2263
G1 X36.951 Y91.946 E0.2414
G1 X36.540 Y91.755 E0.2565
G1 X36.102 Y91.637 E0.2716
G1 X35.650 Y91.598 E0.2867
G1 X35.198 Y91.637 E0.3017
G1 X34.760 Y91.755 E0.3168
G1 X34.349 Y91.946 E0.3319
G1 X33.977 Y92.207 E0.3470
G1 X33.657 Y92.527 E0.3621
G1 X33.396 Y92.899 E0.3772
G1 X33.205 Y93.310 E0.3923
G1 X33.087 Y93.748 E0.4074
G1 X33.048 Y94.200 E0.4224
G1 X33.087 Y94.652 E0.4375
G1 X33.205 Y95.090 E0.4526
G1 X33.396 Y95.501 E0.4677
G1 X33.657 Y95.873 E0.4828
G1 X33.977 Y96.193 E0.4979
G1 X34.349 Y96.454 E0.5130
G1 X34.760 Y96.645 E0.5280
G1 X35.198 Y96.763 E0.5431
; outer perimeter
G1 X35.268 Y96.367 F6000
G92 E0
G1 X35.650 Y96.401 E0.0128 F1620
G1 X36.032 Y96.367 E0.0255
G1 X36.403 Y96.268 E0.0383
G1 X36.750 Y96.106 E0.0510
G1 X37.065 Y95.886 E0.0638
G1 X37.336 Y95.615 E0.0766
G1 X37.556 Y95.300 E0.0893
G1 X37.718 Y94.953 E0.1021
G1 X37.817 Y94.582 E0.1148
G1 X37.851 Y94.200 E0.1276
G1 X37.817 Y93.818 E0.1404
G1 X37.718 Y93.447 E0.1531
